X:1
T:Matagorda, 87.87 D
T:Matagorda, 87.87 D
T:Ira David Sankey, 1881
T:Public Domain Courtesy of the Cyber Hymnal™
C:Ira David Sankey, 1881
Z:Public Domain
Z:Courtesy of the Cyber Hymnal™
%%score ( 1 2 ) ( 3 4 )
L:1/8
Q:1/4=110
M:9/8
K:F
V:1 treble 
V:2 treble 
V:3 bass 
V:4 bass 
V:1
 (CF)[CG] | [FA]3 [FA]3 (AB)[F=B] | [Fc]3 [Fc]3 (cd)[FA] | [Ec]3- [Ec]2 [GB] ([GB][FA])[EG] | %4
 [FA]6 (CF)[CG] | [FA]3 [FA]3 (AB)[F=B] | [Fc]3 [Fc]3 (cd)[FA] | [Ec]3- [Ec]2 [GB] ([GB][FA])[EG] | %8
 F6 ([FA][GB])[Ac] | [Bd]3 [Fd]3 (fe)[Fd] | [Fd]3 [Fc]3 ([Ac][GB])[FA] | %11
 [EG]3- [EG]2 [FA] ([GB][Ac])[Bd] | ([Ac]3 [FA]3) (AB)[Fc] | [Fd]3 [Fd]3 (fe)[Fd] | %14
 [Fd]3 [Fc]3 ([Fc][EB])[FA] | [EG]3- [EG]2 [GB] ([GB][FA])[EG] | F6 |] %17
V:2
 C2 x | x6 F2 x | x6 F2 x | x9 | x6 C2 x | x6 F2 x | x6 F2 x | x9 | F6 x3 | x6 F2 x | x9 | x9 | %12
 x6 F2 x | x6 F2 x | x9 | x9 | F6 |] %17
V:3
 [F,A,]2 [F,B,] | [F,C]3 [F,C]3 (F,G,)[F,^G,] | [F,A,]3 [F,A,]3 [F,A,]2 [F,A,] | %3
 [C,G,]3- [C,G,]2 [C,C] [C,C]2 [C,C] | [F,C]6 [F,A,]2 [F,B,] | [F,C]3 [F,C]3 (F,G,)[F,^G,] | %6
 [F,A,]3 [F,A,]3 [F,A,]2 [F,A,] | [C,G,]3- [C,G,]2 [C,C] [C,C]2 [C,B,] | [F,A,]6 F,2 F, | %9
 [B,,F,]3 [B,,B,]3 (DC)[B,,B,] | [F,A,]3 [F,A,]3 [F,C]2 [F,C] | [C,C]3- [C,C]2 [C,C] [C,C]2 [C,C] | %12
 [F,C]6 C2 [A,C] | B,3 [B,,B,]3 (DC)[B,,B,] | [F,B,]3 [F,A,]3 C2 [F,C] | %15
 [C,C]3- [C,C]2 [C,C] [C,C]2 [C,B,] | [F,A,]6 |] %17
V:4
 x3 | x6 F,2 x | x9 | x9 | x9 | x6 F,2 x | x9 | x9 | x6 F,2 F, | x6 B,,2 x | x9 | x9 | %12
 x6 (F,G,) x | B,3 B,,2 x4 | x6 (A,G,) x | x9 | x6 |] %17

